X:183
T:B183-  He that loves best must suffer most
S:(1st/2)
Q:1/4=120
L:1/4
M:3/4
K:F
ccf|e2d/2c/2|dc2|A2(G/2F/2)|\
(A/2B/2) (B3/2 A/4B/4)|(c3/2 d/2)e|f(c3/2 c/4d/4)|e3|\
(e/2f/2)f3/2f/2|g2d|=ed2|=B2G|\
c(d3/2 c/4d/4)|=e2e|dd2|c3|\
cA3/2A/2|B2c|dg2|e2(d/2c/2)|\
D((c2|c/2)d/2)=e(d/2c/2)|(B/2A/2) (G3/2 F/2)|.F3|]
